X:1
T:Title
%%score { ( 1 3 ) | ( 2 4 ) }
L:1/8
Q:1/4=82
M:2/4
K:D
V:1 treble nm="Grand Piano"
V:3 treble 
V:2 bass 
V:4 bass 
V:1
 D>E F/F/G/G/ | AF D2 | B>B B[FA] | B4 | A>B cd | ec A2 | [EAc]>[EAc] [EAc][D^GB] | [A,CEA]4 | %8
w: Wm.~J.~Kirkpatrick * * * * *||||||||
 e>d cB | [FA][EG] FA | e>d cB | [FA][EG] [DF][FA] | [Fd]>[Fd] [Fd]2 | [Ad]>[Ad] [Ad]2 | e>e dc | %15
w: |||||||
 [Fd]4 | z F z2 | z D z2 | z F z2 | FD EA, | D>C D/E/F/G/ | z .d A.F | G>F G/A/B/c/ | z .d3 | %24
w: |||||||||
 e>d cB | [FA][EG] FA | e>d cB | [FA][EG] [DF][FA] | [Fd]>[Fd] [Fd]2 | [Ad]>[Ad] [Ad]2 | e>e dc | %31
w: |||||||
[M:6/4] .[Fd]6 z6 |] %32
w: |
V:2
 D,>E, F,/F,/G,/G,/ | A,F, D,2 | [G,DG]>[G,DG] [G,DG][D,D] | [G,DG]4 | A,>B, CD | EC[K:bass] A,2 | %6
 E,>E, E,E, | A,,4 | [A,CG]>[A,DG] [A,EG][A,CG] | [D,D][D,A,] [D,A,D][F,D] | %10
 [A,CG]>[A,DG] [A,EG][A,CG] | [D,D][D,A,] [D,A,][D,D] | [D,A,]>[D,A,] [D,A,]2 | %13
 [F,D]>[F,D] [F,D]2 | [G,B,G]>[G,B,G] [A,F][K:bass][A,E] | [D,A,]4 | A,2 A,2 | A,2 .A,2 | %18
 A,2 A,/A,/A,/A,/ | A,F, .A,2 | D,>C, D,/E,/F,/G,/ | [A,G].D[K:bass] A,.F, | %22
 G,>F, G,/A,/B,/[K:treble]C/ | z .D3 | [A,CG]>[A,DG] [A,EG][A,CG] | [D,D][D,A,] [D,A,D][F,D] | %26
 [A,CG]>[A,DG] [A,EG][A,CG] | [D,D][D,A,] [D,A,][D,D] | [D,A,]>[D,A,] [D,A,]2 | %29
 [F,D]>[F,D] [F,D]2 | [G,B,G]>[G,B,G] [A,F][K:bass][A,E] |[M:6/4] .[D,A,]6 z6 |] %32
V:3
 x4 | x4 | x4 | x4 | x4 | x4 | x4 | x4 | x4 | x4 | x4 | x4 | x4 | x4 | x4 | x4 | .A>A, GE | %17
 .F>A, EA, | .A>A, GE | x4 | x4 | A2 z2 | x4 | .d2 .B.G | x4 | x4 | x4 | x4 | x4 | x4 | x4 | %31
[M:6/4] x12 |] %32
V:4
 x4 | x4 | x4 | x4 | x4 | x2[K:bass] x2 | x4 | x4 | x4 | x4 | x4 | x4 | x4 | x4 | x3[K:bass] x | %15
 x4 | x4 | x4 | x4 | x4 | x4 | x2[K:bass] x2 | x7/2[K:treble] x/ | .D2 .B,.G, | x4 | x4 | x4 | x4 | %28
 x4 | x4 | x3[K:bass] x |[M:6/4] x12 |] %32

